packages/tokens/icons/saml/size16Px.svg

<svg viewBox="0 0 16 16" fill="none" xmlns="http://www.w3.org/2000/svg" width="1em" height="1em"><path d="M13.5396 11.9166H14.0396C14.0396 11.78 13.9837 11.6494 13.885 11.5551L13.5396 11.9166ZM13.5396 11.9166L14.0396 11.9166V11.9167V11.9167V11.9169V11.917V11.9172V11.9175V11.9177V11.918V11.9184V11.9188V11.9192V11.9196V11.9201V11.9206V11.9212V11.9218V11.9224V11.923V11.9237V11.9244V11.9252V11.926V11.9268V11.9277V11.9285V11.9295V11.9304V11.9314V11.9324V11.9335V11.9346V11.9357V11.9368V11.938V11.9392V11.9405V11.9418V11.9431V11.9444V11.9458V11.9472V11.9486V11.9501V11.9516V11.9531V11.9546V11.9562V11.9578V11.9595V11.9611V11.9628V11.9646V11.9663V11.9681V11.97V11.9718V11.9737V11.9756V11.9775V11.9795V11.9815V11.9835V11.9855V11.9876V11.9897V11.9919V11.994V11.9962V11.9984V12.0007V12.0029V12.0052V12.0075V12.0099V12.0122V12.0146V12.0171V12.0195V12.022V12.0245V12.027V12.0296V12.0322V12.0348V12.0374V12.04V12.0427V12.0454V12.0482V12.0509V12.0537V12.0565V12.0593V12.0621V12.065V12.0679V12.0708V12.0738V12.0767V12.0797V12.0827V12.0858V12.0888V12.0919V12.095V12.0981V12.1012V12.1044V12.1076V12.1108V12.114V12.1173V12.1206V12.1238V12.1272V12.1305V12.1338V12.1372V12.1406V12.144V12.1475V12.1509V12.1544V12.1579V12.1614V12.1649V12.1685V12.1721V12.1756V12.1793V12.1829V12.1865V12.1902V12.1939V12.1976V12.2013V12.205V12.2088V12.2126V12.2163V12.2202V12.224V12.2278V12.2317V12.2356V12.2394V12.2434V12.2473V12.2512V12.2552V12.2591V12.2631V12.2671V12.2711V12.2752V12.2792V12.2833V12.2874V12.2915V12.2956V12.2997V12.3038V12.308V12.3122V12.3163V12.3205V12.3247V12.329V12.3332V12.3374V12.3417V12.346V12.3503V12.3546V12.3589V12.3632V12.3675V12.3719V12.3762V12.3806V12.385V12.3894V12.3938V12.3982V12.4027V12.4071V12.4116V12.416V12.4205V12.425V12.4295V12.434V12.4385V12.443V12.4476V12.4521V12.4567V12.4612V12.4658V12.4704V12.475V12.4796V12.4842V12.4888V12.4934V12.4981V12.5027V12.5074V12.512V12.5167V12.5214V12.526V12.5307V12.5354V12.5401V12.5448V12.5496V12.5543V12.559V12.5637V12.5685V12.5732V12.578V12.5828V12.5875V12.5923V12.5971V12.6019V12.6067V12.6115V12.6163V12.6211V12.6259V12.6307V12.6355V12.6403V12.6451V12.65V12.6548V12.6596V12.6645V12.6693V12.6742V12.679V12.6839V12.6887V12.6936V12.6985V12.7033V12.7082V12.7131V12.7179V12.7228V12.7277V12.7326V12.7374V12.7423V12.7472V12.7521V12.757V12.7619V12.7667V12.7716V12.7765V12.7814V12.7863V12.7912V12.7961V12.8009V12.8058V12.8107V12.8156V12.8205V12.8254V12.8302V12.8351V12.84V12.8449V12.8497V12.8546V12.8595V12.8644V12.8692V12.8741V12.879V12.8838V12.8887V12.8935V12.8984V12.9032V12.9081V12.9129V12.9177V12.9226V12.9274V12.9322V12.9371V12.9419V12.9467V12.9515V12.9563V12.9611V12.9659V12.9707V12.9755V12.9803V12.985V12.9898V12.9946V12.9993V13.0041V13.0088V13.0135V13.0183V13.023V13.0277V13.0324V13.0371V13.0418V13.0465V13.0512V13.0559V13.0605V13.0652V13.0699V13.0745V13.0791V13.0838V13.0884V13.093V13.0976V13.1022V13.1068V13.1113V13.1159V13.1205V13.125V13.1295V13.1341V13.1386V13.1431V13.1476V13.1521V13.1565V13.161V13.1655V13.1699V13.1743V13.1787V13.1832V13.1876V13.1919V13.1963V13.2007V13.205V13.2094V13.2137V13.218V13.2223V13.2266V13.2309V13.2351V13.2394V13.2436V13.2478V13.252V13.2562V13.2604V13.2646V13.2687V13.2729V13.277V13.2811V13.2852V13.2893V13.2933V13.2974V13.3014V13.3054V13.3094V13.3134V13.3174V13.3213V13.3253V13.3292V13.3331V13.337V13.3409V13.3447V13.3486V13.3524V13.3562V13.36V13.3638V13.3675V13.3713V13.375V13.3787V13.3824V13.386V13.3897V13.3933V13.3969V13.4005V13.4041V13.4076V13.4111V13.4147V13.4182V13.4216V13.4251V13.4285V13.4319V13.4353V13.4387V13.4421V13.4454V13.4487V13.452V13.4553V13.4585V13.4617V13.465V13.4681V13.4713V13.4744V13.4776V13.4807V13.4837V13.4868V13.4898V13.4928V13.4958V13.4988V13.5017V13.5046V13.5075V13.5104V13.5133V13.5161V13.5189V13.5216V13.5244V13.5271V13.5298V13.5325V13.5352V13.5378V13.5404V13.543V13.5455V13.548V13.5505V13.553V13.5555V13.5579V13.5603V13.5627V13.565V13.5673V13.5696V13.5719V13.5741V13.5763V13.5785V13.5807V13.5828V13.5849V13.587V13.589V13.5911V13.5931V13.595V13.597V13.5989V13.6007V13.6026V13.6044V13.6062V13.608V13.6097V13.6114V13.6131V13.6147V13.6163V13.6179V13.6195V13.621V13.6225V13.6239V13.6254V13.6268V13.6281V13.6295V13.6308V13.6321V13.6333V13.6345V13.6357V13.6369V13.638V13.6391V13.6401V13.6411V13.6421V13.6431V13.644V13.6449V13.6457V13.6466V13.6473C14.0396 13.9253 13.9056 14.1615 13.7489 14.3182C13.5922 14.4749 13.356 14.6089 13.078 14.6089H13.0774H13.0768H13.0761H13.0754H13.0746H13.0739H13.073H13.0722H13.0713H13.0704H13.0695H13.0685H13.0675H13.0664H13.0653H13.0642H13.0631H13.0619H13.0607H13.0594H13.0582H13.0569H13.0555H13.0541H13.0527H13.0513H13.0498H13.0483H13.0468H13.0453H13.0437H13.042H13.0404H13.0387H13.037H13.0353H13.0335H13.0317H13.0299H13.028H13.0261H13.0242H13.0222H13.0203H13.0183H13.0162H13.0142H13.0121H13.0099H13.0078H13.0056H13.0034H13.0012H12.9989H12.9966H12.9943H12.992H12.9896H12.9872H12.9848H12.9823H12.9799H12.9774H12.9748H12.9723H12.9697H12.9671H12.9645H12.9618H12.9591H12.9564H12.9537H12.951H12.9482H12.9454H12.9425H12.9397H12.9368H12.9339H12.931H12.928H12.9251H12.9221H12.919H12.916H12.9129H12.9098H12.9067H12.9036H12.9004H12.8973H12.8941H12.8908H12.8876H12.8843H12.881H12.8777H12.8744H12.8711H12.8677H12.8643H12.8609H12.8574H12.854H12.8505H12.847H12.8435H12.84H12.8364H12.8328H12.8292H12.8256H12.822H12.8183H12.8147H12.811H12.8073H12.8035H12.7998H12.796H12.7922H12.7884H12.7846H12.7808H12.7769H12.7731H12.7692H12.7653H12.7613H12.7574H12.7535H12.7495H12.7455H12.7415H12.7375H12.7334H12.7294H12.7253H12.7212H12.7171H12.713H12.7089H12.7047H12.7006H12.6964H12.6922H12.688H12.6838H12.6796H12.6753H12.6711H12.6668H12.6625H12.6582H12.6539H12.6496H12.6452H12.6409H12.6365H12.6321H12.6278H12.6234H12.6189H12.6145H12.6101H12.6056H12.6012H12.5967H12.5922H12.5877H12.5832H12.5787H12.5742H12.5696H12.5651H12.5605H12.556H12.5514H12.5468H12.5422H12.5376H12.533H12.5283H12.5237H12.5191H12.5144H12.5097H12.5051H12.5004H12.4957H12.491H12.4863H12.4816H12.4769H12.4722H12.4674H12.4627H12.4579H12.4532H12.4484H12.4436H12.4389H12.4341H12.4293H12.4245H12.4197H12.4149H12.4101H12.4053H12.4004H12.3956H12.3908H12.3859H12.3811H12.3762H12.3714H12.3665H12.3617H12.3568H12.3519H12.347H12.3422H12.3373H12.3324H12.3275H12.3226H12.3177H12.3128H12.3079H12.303H12.2981H12.2932H12.2883H12.2834H12.2784H12.2735H12.2686H12.2637H12.2588H12.2538H12.2489H12.244H12.2391H12.2341H12.2292H12.2243H12.2194H12.2144H12.2095H12.2046H12.1996H12.1947H12.1898H12.1849H12.1799H12.175H12.1701H12.1652H12.1603H12.1553H12.1504H12.1455H12.1406H12.1357H12.1308H12.1259H12.121H12.1161H12.1112H12.1063H12.1014H12.0965H12.0916H12.0867H12.0818H12.077H12.0721H12.0672H12.0624H12.0575H12.0527H12.0478H12.043H12.0381H12.0333H12.0285H12.0236H12.0188H12.014H12.0092H12.0044H11.9996H11.9948H11.99H11.9853H11.9805H11.9757H11.971H11.9662H11.9615H11.9568H11.952H11.9473H11.9426H11.9379H11.9332H11.9285H11.9238H11.9192H11.9145H11.9099H11.9052H11.9006H11.896H11.8914H11.8867H11.8822H11.8776H11.873H11.8684H11.8639H11.8593H11.8548H11.8503H11.8457H11.8412H11.8368H11.8323H11.8278H11.8233H11.8189H11.8145H11.81H11.8056H11.8012H11.7969H11.7925H11.7881H11.7838H11.7794H11.7751H11.7708H11.7665H11.7622H11.758H11.7537H11.7495H11.7452H11.741H11.7368H11.7326H11.7285H11.7243H11.7202H11.716H11.7119H11.7078H11.7038H11.6997H11.6956H11.6916H11.6876H11.6836H11.6796H11.6756H11.6717H11.6678H11.6638H11.6599H11.6561H11.6522H11.6483H11.6445H11.6407H11.6369H11.6331H11.6294H11.6256H11.6219H11.6182H11.6145H11.6108H11.6072H11.6036H11.6H11.5964H11.5928H11.5893H11.5857H11.5822H11.5787H11.5752H11.5718H11.5684H11.565H11.5616H11.5582H11.5549H11.5515H11.5482H11.5449H11.5417H11.5384H11.5352H11.532H11.5289H11.5257H11.5226H11.5195H11.5164H11.5133H11.5103H11.5073H11.5043H11.5013H11.4984H11.4955H11.4926H11.4897H11.4868H11.484H11.4812H11.4784H11.4757H11.473H11.4703H11.4676H11.4649H11.4623H11.4597H11.4572H11.4546H11.4521H11.4496H11.4471H11.4447H11.4423H11.4399H11.4375H11.4352H11.4329H11.4306H11.4283H11.4261H11.4239H11.4218H11.4196H11.4175H11.4154H11.4134H11.4113H11.4093H11.4074H11.4054H11.4035H11.4016H11.3998H11.3979H11.3962H11.3944H11.3927H11.3909H11.3893H11.3876H11.386H11.3844H11.3829H11.3814H11.3799H11.3784H11.377H11.3756H11.3742H11.3729H11.3716H11.3703H11.3691H11.3679H11.3667H11.3656H11.3645H11.3634H11.3624H11.3614H11.3604H11.3594H11.3585H11.3577H11.3568H11.356H11.3553H11.3545H11.3538H11.3532H11.3525H11.3519H11.3514H11.3508H11.3503H11.3499H11.3495H11.3491H11.3487H11.3484H11.3482H11.3479H11.3477H11.3475H11.3474H11.3473H11.3473L11.3472 14.1089M13.5396 11.9166L13.885 11.5551L13.8849 11.555L13.8845 11.5546L13.8828 11.553L13.8763 11.5468L13.8506 11.5222L13.7515 11.4274L13.3867 11.078C13.0783 10.7824 12.6517 10.3729 12.1788 9.91734C11.2322 9.00549 10.1029 7.91185 9.36435 7.17742C9.198 7.012 9.19071 6.8118 9.20545 6.50408C9.20693 6.47316 9.20748 6.44294 9.20785 6.42217C9.20791 6.41911 9.20796 6.41625 9.20801 6.41363C9.20848 6.389 9.20891 6.37988 9.20928 6.37524C9.31365 5.07903 8.98468 3.88737 8.26232 3.01137C7.53443 2.12867 6.44099 1.60889 5.11213 1.60889C2.58628 1.60889 1.03955 3.70839 1.03955 5.57326C1.03955 6.44113 1.22213 7.57349 1.90782 8.48752C2.61462 9.42969 3.79611 10.0607 5.61616 10.0083C5.70325 10.008 5.79183 10.0039 5.86991 10.0003L5.87527 10.0001C5.96508 9.99596 6.05852 9.98624 6.13603 9.97818C6.14907 9.97683 6.16165 9.97552 6.1737 9.97429C6.26517 9.96496 6.33857 9.95871 6.40589 9.95833C6.53727 9.95758 6.59628 9.98011 6.63595 10.0097C6.63519 10.0091 6.63479 10.0088 6.63478 10.0088C6.63475 10.0089 6.64294 10.0154 6.6629 10.0332C6.6843 10.0522 6.71216 10.0777 6.7466 10.1099C6.81542 10.1741 6.90338 10.2582 7.00589 10.3566C7.04298 10.3923 7.08185 10.4296 7.12216 10.4684C7.30266 10.6421 7.51198 10.8434 7.71919 11.0379C7.88536 11.1939 8.08796 11.2209 8.23294 11.2132C8.3174 11.2087 8.40154 11.192 8.48297 11.1686C8.45749 11.2573 8.43815 11.3539 8.4332 11.4534C8.42429 11.6326 8.46153 11.8841 8.66751 12.0797C8.66892 12.0811 8.67038 12.0824 8.67189 12.0839C8.74069 12.1493 8.90787 12.3083 9.17693 12.3487C9.30212 12.3674 9.42652 12.3579 9.54991 12.3272C9.52299 12.3936 9.4927 12.4881 9.48898 12.5995C9.48412 12.7455 9.52573 12.8889 9.61474 13.0141C9.66553 13.0855 9.79374 13.2225 9.90815 13.3435C10.0393 13.4823 10.2036 13.6528 10.3635 13.8176C10.5236 13.9827 10.6804 14.1432 10.7972 14.2623L10.9378 14.4056L10.977 14.4455L10.9874 14.4561L10.9901 14.4588L10.9908 14.4595L10.9909 14.4597L10.991 14.4597L11.3472 14.1089M11.3472 14.1089V14.6089C11.2133 14.6089 11.085 14.5552 10.991 14.4597L11.3472 14.1089ZM4.61213 4.64735C4.61213 4.9194 4.38958 5.14473 4.10912 5.14473C3.82867 5.14473 3.60612 4.9194 3.60612 4.64735C3.60612 4.3753 3.82867 4.14997 4.10912 4.14997C4.38958 4.14997 4.61213 4.3753 4.61213 4.64735Z" stroke="currentColor" stroke-linecap="round" stroke-linejoin="round"/></svg>

<svg xmlns="http://www.w3.org/2000/svg" fill="none" viewBox="0 0 16 16" width="1em" height="1em"><path stroke="currentColor" stroke-linecap="round" stroke-linejoin="round" d="M13.54 11.917h.5a.5.5 0 0 0-.155-.362l-.345.362Zm0 0h.5v1.73a.962.962 0 0 1-.291.671.962.962 0 0 1-.671.29h0-.001 0-.002 0-.002 0-.002 0-.002 0-.002 0-.002 0-.006 0-.004 0-1.685 0-.006 0-.002 0-.002 0-.002 0-.002 0-.002 0-.002 0-.001 0-.001 0-.001 0-.001 0v-.5m2.192-2.191.345-.362h0l-.002-.002-.007-.006-.025-.025-.1-.095-.364-.349-1.208-1.16a284.942 284.942 0 0 1-2.815-2.74c-.166-.166-.173-.366-.159-.674l.003-.082v-.008l.001-.039c.105-1.296-.224-2.488-.947-3.364-.728-.882-1.821-1.402-3.15-1.402-2.526 0-4.072 2.1-4.072 3.964 0 .868.182 2 .868 2.915.707.942 1.888 1.573 3.708 1.52.087 0 .176-.004.254-.008h.005c.09-.004.184-.014.261-.022l.038-.004c.091-.009.165-.015.232-.016.131 0 .19.022.23.052l-.001-.001.028.024.084.077.259.247.116.111c.18.174.39.375.597.57a.685.685 0 0 0 .514.175 1.12 1.12 0 0 0 .25-.044 1.265 1.265 0 0 0-.05.284.793.793 0 0 0 .235.627l.004.004c.069.065.236.224.505.265a.95.95 0 0 0 .373-.022.797.797 0 0 0-.061.273.67.67 0 0 0 .126.414c.05.072.179.209.293.33a114.338 114.338 0 0 0 .89.919l.14.143.039.04.01.01.003.003h.001l.356-.35m0 0v.5a.5.5 0 0 1-.356-.15l.356-.35ZM4.612 4.647a.5.5 0 0 1-.503.498.5.5 0 0 1-.503-.498.5.5 0 0 1 .503-.497.5.5 0 0 1 .503.497Z"/></svg>
